icons/lines/quote-down-square.svg

<svg xmlns="http://www.w3.org/2000/svg" width="24" height="24" viewBox="0 0 24 24" fill="none" stroke="currentColor" stroke-width="2" stroke-linecap="round" stroke-linejoin="round" >
  <path d="M9 22H15C20 22 22 20 22 15V9C22 4 20 2 15 2H9C4 2 2 4 2 9V15C2 20 4 22 9 22Z"/>
  <path d="M7 12.16H9.68C10.39 12.16 10.87 12.7 10.87 13.35V14.84C10.87 15.49 10.39 16.03 9.68 16.03H8.19C7.54 16.03 7 15.49 7 14.84V12.16"/>
  <path d="M7 12.16C7 9.36997 7.52 8.89997 9.09 7.96997"/>
  <path d="M13.1401 12.16H15.8201C16.5301 12.16 17.0101 12.7 17.0101 13.35V14.84C17.0101 15.49 16.5301 16.03 15.8201 16.03H14.3301C13.6801 16.03 13.1401 15.49 13.1401 14.84V12.16"/>
  <path d="M13.1401 12.16C13.1401 9.36997 13.6601 8.89997 15.2301 7.96997"/>
  </svg>

<svg xmlns="http://www.w3.org/2000/svg" width="24" height="24" viewBox="0 0 24 24" fill="none" stroke="currentColor" stroke-width="2" stroke-linecap="round" stroke-linejoin="round">
  <path d="M13.14 12.16c0-2.79.52-3.26 2.09-4.19" />
  <path d="M13.14 12.16h2.68a1.16 1.16 0 0 1 1.19 1.19v1.49a1.16 1.16 0 0 1-1.19 1.19h-1.49a1.2 1.2 0 0 1-1.19-1.19z" />
  <path d="M15 22c5 0 7-2 7-7V9c0-5-2-7-7-7H9C4 2 2 4 2 9v6c0 5 2 7 7 7z" />
  <path d="M7 12.16c0-2.79.52-3.26 2.09-4.19" />
  <path d="M7 12.16h2.68a1.16 1.16 0 0 1 1.19 1.19v1.49a1.16 1.16 0 0 1-1.19 1.19H8.19A1.2 1.2 0 0 1 7 14.84z" />
</svg>
